!!!OTL: 624. Sandmaennchen.
!!!ARE: Europa, Mitteleuropa, Deutschland, Niederrhein ?
!!!SCT: B0624
!!!TXL: @@DE
!!!YEM: Copyright 1995, estate of Helmut Schaffrath.
**kern	**text
*ICvox	*
*Ivox	*
*clefG2	*
*M4/4	*
*met(c)	*
*k[f#c#g#]	*
*A:	*
!LO:TX:a:t=Nicht schleppend.	!
{4e	Die
=1	=1
4.a	Blü-
8b	-me-
4cc#	-lein
4b	ſie
=2	=2
2a	ſchla-
4g#}	-fen
{4a	ſchon
=3	=3
8bL	längſt
8cc#J	.
4dd	im
8cc#L	Mon-
8bJ	.
4a	-den-
=4	=4
2b	-ſchein.
4r}	.
{4e	Sie
=5	=5
4.a	nik-
8b	-ken
4cc#	mit
4b	dem
=6	=6
2a	Köpf-
4g#}	-chen
{4a	auf
=7	=7
8bL	ih-
8cc#J	.
4dd	-rem
8cc#L	Sten-
8bJ	.
4a	-ge-
=8	=8
2b	-lein.
4r}	.
{8cc#L	Es
8ddJ	.
=9	=9
4ee	rüt-
4cc#	-telt
4dd	ſich
4ee	der
=10	=10
4.ff#	Blü-
8ee	-then-
4dd}	-baum,
{8bL	er
8cc#J	.
=11	=11
4dd	ſäu-
4dd	-ſelt
4cc#	wie
4ee	im
=12	=12
2.b	Traume;
4r}	.
=13||	=13||
{(4.ee	ſchla-
8cc#)	.
2b	-fe,
=14	=14
(4.cc#	ſchla-
8b)	.
8aL	-fe,
8b}J	.
{8cc#L	ſchlaf'
8ddJ	.
=15	=15
4ee	du
8aL	mein
8bJ	.
4cc#	Kin-
4b	-de-
=16	=16
2a	-lein!
4r}	.
==	==
!!!AGN: Kinder -, Wiegen - Lied
!!!GTL: Kinderlieder
!!!ONB: ESAC (Essen Associative Code) Database: BOEHME
!!!AMT: simple quadruple
!!!AIN: vox
!!!EED: Helmut Schaffrath
!!!EEV: 1.0
!!@@COMMENT:"Text und Melodie ʒuerſt 1840 in den Volksliedern von A. Kretʒſchmer und A. W. v. Ʒuccalmaglio II, Nr. 355. 
!!Angeblich vom Niederrhein. Dies ʒarte und innige Wiegenliedchen mit ſeiner reiʒenden Singweiſe iſt ohne 
!!Ʒweifel ein Werk des Herausgebers W. von Ʒuccalmaglioſelbſt.
!!Die Melodie ſoll nach Erk (Liedertafel Nr. 52) einer Volksweiſe von 1678 nachgebildet ſein.[...]"
!!@@END:
!!!URL-scan: https://archive.org/details/BoehmeVtLieder1895/page/n491/mode/2up
!!!ENC: Anna Maria Matuszewska
!!!EEV: 2024/15/07
*-	*-
